src/images/github_grey.svg

<svg width="64" height="64" viewBox="0 0 64 64" fill="none" xmlns="http://www.w3.org/2000/svg">
<path d="M32 0C14.3307 0 0 14.328 0 32C0 46.1387 9.168 58.1333 21.8853 62.3653C23.4827 62.6613 24 61.6693 24 60.8267V54.8693C15.0987 56.8053 13.2453 51.0933 13.2453 51.0933C11.7893 47.3947 9.69067 46.4107 9.69067 46.4107C6.78667 44.424 9.912 44.4667 9.912 44.4667C13.1253 44.6907 14.816 47.7653 14.816 47.7653C17.6693 52.656 22.3013 51.2427 24.128 50.424C24.4133 48.3573 25.2427 46.944 26.16 46.1467C19.0533 45.3333 11.5813 42.5893 11.5813 30.3307C11.5813 26.8347 12.832 23.9813 14.8773 21.7413C14.5467 20.9333 13.4507 17.6773 15.1893 13.272C15.1893 13.272 17.8773 12.4133 23.992 16.552C26.544 15.8427 29.28 15.488 32 15.4747C34.72 15.488 37.4587 15.8427 40.016 16.552C46.1253 12.4133 48.808 13.272 48.808 13.272C50.5493 17.68 49.4533 20.936 49.1227 21.7413C51.176 23.9813 52.416 26.8373 52.416 30.3307C52.416 42.6213 44.9307 45.328 37.8053 46.12C38.952 47.112 40 49.0587 40 52.0453V60.8267C40 61.6773 40.512 62.6773 42.136 62.3627C54.8427 58.1253 64 46.1333 64 32C64 14.328 49.672 0 32 0Z" fill="#F0F0F2"/>
</svg>

<svg fill="none" xmlns="http://www.w3.org/2000/svg" viewBox="0 0 64 64"><path d="M32 0C14.33 0 0 14.328 0 32c0 14.139 9.168 26.133 21.885 30.365 1.598.296 2.115-.696 2.115-1.538v-5.958c-8.901 1.936-10.755-3.776-10.755-3.776-1.456-3.698-3.554-4.682-3.554-4.682-2.904-1.987.221-1.944.221-1.944 3.213.224 4.904 3.298 4.904 3.298 2.853 4.891 7.485 3.478 9.312 2.659.285-2.067 1.115-3.48 2.032-4.277-7.107-.814-14.579-3.558-14.579-15.816 0-3.496 1.251-6.35 3.296-8.59-.33-.808-1.426-4.064.312-8.469 0 0 2.688-.859 8.803 3.28 2.552-.71 5.288-1.064 8.008-1.077 2.72.013 5.459.368 8.016 1.077 6.11-4.139 8.792-3.28 8.792-3.28 1.741 4.408.645 7.664.315 8.47 2.053 2.24 3.293 5.095 3.293 8.589 0 12.29-7.485 14.997-14.61 15.789 1.146.992 2.194 2.939 2.194 5.925v8.782c0 .85.512 1.85 2.136 1.536C54.843 58.125 64 46.133 64 32 64 14.328 49.672 0 32 0Z" fill="#F0F0F2"/></svg>
